X: 108
T: The Dawning of the Day
N:"Moderate" "collected by Walsh"
B:O'Neill's 108
Z:Transcribed by henrik.norbeck@mailbox.swipnet.se
M:C
L:1/8
K:D
d2 d>e f>gef|d>fed {d}c2 z d|A>BG>A F>GEF|Ddec d2 z:|
(f/g/)|affa ag z g|affa g3 f|egec egec|z ffe f3g|
afga bagf|efed {d}c2 z d|A>BG>A F>GEF|Ddec d2 z2||


